dist/flags/l/340.svg

<svg width="32" height="24" viewBox="0 0 32 24" fill="none" xmlns="http://www.w3.org/2000/svg">
<mask id="mask0" mask-type="alpha" maskUnits="userSpaceOnUse" x="0" y="0" width="32" height="24">
<rect width="32" height="24" fill="white"/>
</mask>
<g mask="url(#mask0)">
<path fill-rule="evenodd" clip-rule="evenodd" d="M0 0V24H32V0H0Z" fill="#F7FCFF"/>
<mask id="mask1" mask-type="alpha" maskUnits="userSpaceOnUse" x="0" y="0" width="32" height="24">
<path fill-rule="evenodd" clip-rule="evenodd" d="M0 0V24H32V0H0Z" fill="white"/>
</mask>
<g mask="url(#mask1)">
<path fill-rule="evenodd" clip-rule="evenodd" d="M0 0V8H32V0H0Z" fill="#4564F9"/>
<path fill-rule="evenodd" clip-rule="evenodd" d="M0 16V24H32V16H0Z" fill="#4564F9"/>
<path fill-rule="evenodd" clip-rule="evenodd" d="M16.4021 12.6708L15.5356 13.118L15.7011 12.1708L15 11.4309H15.9688L16.4021 10.5L16.8354 11.4309H17.8042L17.1032 12.1708L17.2687 13.118L16.4021 12.6708Z" fill="#4564F9"/>
<path fill-rule="evenodd" clip-rule="evenodd" d="M10.3181 10.5027L9.45158 10.9499L9.61707 10.0027L8.91602 9.26281H9.88485L10.3181 8.33191L10.7514 9.26281H11.7202L11.0192 10.0027L11.1847 10.9499L10.3181 10.5027Z" fill="#4564F9"/>
<path fill-rule="evenodd" clip-rule="evenodd" d="M10.3181 14.7027L9.45158 15.1499L9.61707 14.2027L8.91602 13.4628H9.88485L10.3181 12.5319L10.7514 13.4628H11.7202L11.0192 14.2027L11.1847 15.1499L10.3181 14.7027Z" fill="#4564F9"/>
<path fill-rule="evenodd" clip-rule="evenodd" d="M22.3181 10.5027L21.4516 10.9499L21.6171 10.0027L20.916 9.26281H21.8849L22.3181 8.33191L22.7514 9.26281H23.7202L23.0192 10.0027L23.1847 10.9499L22.3181 10.5027Z" fill="#4564F9"/>
<path fill-rule="evenodd" clip-rule="evenodd" d="M22.3181 14.7027L21.4516 15.1499L21.6171 14.2027L20.916 13.4628H21.8849L22.3181 12.5319L22.7514 13.4628H23.7202L23.0192 14.2027L23.1847 15.1499L22.3181 14.7027Z" fill="#4564F9"/>
</g>
</g>
</svg>

<svg width="32" height="24" fill="none" xmlns="http://www.w3.org/2000/svg">
  <mask id="a" maskUnits="userSpaceOnUse" x="0" y="0" width="32" height="24">
    <path fill="#fff" d="M0 0h32v24H0z"/>
  </mask>
  <g mask="url(#a)">
    <path fill-rule="evenodd" clip-rule="evenodd" d="M0 0v24h32V0H0z" fill="#F7FCFF"/>
    <mask id="b" maskUnits="userSpaceOnUse" x="0" y="0" width="32" height="24">
      <path fill-rule="evenodd" clip-rule="evenodd" d="M0 0v24h32V0H0z" fill="#fff"/>
    </mask>
    <g mask="url(#b)" fill-rule="evenodd" clip-rule="evenodd" fill="#4564F9">
      <path d="M0 0v8h32V0H0zm0 16v8h32v-8H0zm16.402-3.33l-.866.448.165-.947-.701-.74h.969l.433-.931.433.93h.97l-.702.74.166.948-.867-.447zm-6.084-2.167l-.866.447.165-.947-.701-.74h.969l.433-.931.433.93h.97l-.702.74.166.948-.867-.447zm0 4.2l-.866.447.165-.947-.701-.74h.969l.433-.931.433.93h.97l-.702.74.166.948-.867-.447zm12-4.2l-.866.447.165-.947-.701-.74h.969l.433-.931.433.93h.97l-.702.74.166.948-.867-.447zm0 4.2l-.866.447.165-.947-.701-.74h.969l.433-.931.433.93h.97l-.702.74.166.948-.867-.447z"/>
    </g>
  </g>
</svg>
